X: 151
T:Jopplety How
% Nottingham Music Database
S:Chris Dewhurst 1989, via Phil Rowe
M:6/8
K:G
"G"gbg "B7"f3|"C"ege "G"d3|"C"cde "G"dBG|"Am"ABc "D7"def|
"G"gbg "B7"f3|"C"ege "G"d2B|"C"cde "G"dBG|"D"A3 "G"G3::
"D"DEF "G"GAB|"Em"EFG "Am"ABc|"D"def "G"gab|"A7"age "D"d2(3d/2e/2f/2|
"G"gbg "B7"f3|"C"ege "G"d2B|"C"cde "G"dBG|"D"A3 "G"G3:|


